!!!OTL: 25. Der freie deutſche Rhein.
!!!COM: Dietrich Eickhoff
!!!ODT: 1840
!!!ARE: Europa, Mitteleuropa, Deutschland
!!!SCT: B0025
!!!TXL: @@DE
!!!YEM: Copyright 1995, estate of Helmut Schaffrath.
**kern	**text
*ICvox	*
*Ivox	*
*M4/4	*
*met(c)	*
*k[f#c#g#]	*
*A:	*
!LO:TX:a:T=Friſch und kräftig	!
{4e	1._Sie
=1	=1
4a	ſol-
4a	-len
4a	ihn
4b	nicht
=2	=2
(4cc#	ha-
4a)	.
4e}	-ben,
{4e	den
=3	=3
4f#	frei-
8ddL	-en
8cc#J	.
8bL	deut-
8aJ	.
8bL	-ſchen
8cc#J	.
=4	=4
2a	Rhein,
4r}	.
{4a	ob
=5	=5
4cc#	ſie
4cc#	wie
4ee	gier-
8dd#L	-ge
8cc#J	.
=6	=6
(4.b/	Ra-
8a)	.
4g#}	-ben
{4g#	ſich
=7	=7
4f#	hei-
8a/L	-ſer
8cc#J	.
4b	dar-
4b	-nach
=8	=8
2e	ſchrein,
4r}	.
{4e	ſo
=9	=9
4e	lang
8f#L	er
8g#J	.
4a	ru-
8bL	-hig
8cc#J	.
=10	=10
2dd	wal-
4b}	-lend
{4ff#	ſein
=11	=11
4dd	grü-
4cc#	-nes
4b	Kleid
4a	noch
=12	=12
2ee	trägt,
4r}	.
{4e	ſo
=13	=13
4cc#	lang
4b	ein
4a	Ru-
4g#	-der
=14	=14
(>4f#	ſchal-
4g#)	.
4a}	-lend
{4b	in
=15	=15
4cc#	ſei-
8eeL	-ne
8ddJ	.
4cc#	Wo-
4b	-ge
=16	=16
2a	ſchlägt.
4r}	.
==	==
!!!AGN: politisch, national, Vaterlands - Lied
!!!GTL: Vaterlandslieder und Heimathgrüße
!!!ONB: ESAC (Essen Associative Code) Database: BOEHME
!!!AMT: simple quadruple
!!!AIN: vox
!!!EED: Helmut Schaffrath
!!!EEV: 1.0
!!@@COMMENT:"Das berühmte Trußlied vom freien Rhein wurde gedichtet von Nikolaus Becker 1840, als
!! die Franzosen nach dem Rheinstrom verlangten."
!!@@END:
!!!RDF**kern: > = above
!!Text: Nikolaus Becker
!!!URL-scan: https://archive.org/details/BoehmeVtLieder1895/page/n45/mode/2up
!!!ENC: Anna Maria Matuszewska
!!!EEV: 2024/14/06
*-	*-
